X:1
T:Title
%%score 1 2 3 4
L:1/8
Q:1/4=120
M:4/4
K:A
V:1 treble nm="Grand Piano"
V:2 treble nm="Grand Piano"
V:3 bass nm="Grand Piano, Melody"
V:4 bass nm="Grand Piano"
V:1
 z4 c4 | f2 e2 c2 c2 | F2 G2 A2 A2 | e2 f2 d2 c2 | c6 cB | A2 G2 F2 E2 | F4 FGAB | c2 c2 e2 d2 | %8
 c8 | z4 c4 | A2 G2 F2 A2 | c4 c2 c2 | B2 c2 e2 f2 | f6 fe | f2 e2 c2 c2 | F2 G2 A2 A2 | %16
 e2 f2 d2 c2 | c8 |] %18
V:2
 z4 A4 | F2 E2 A2 A2 | c2 B2 A2 F2 | E2 F2 B2 A2 | F6 AG | F2 G2 A2 c2 | c4 cBAG | A2 F2 E2 F2 | %8
 C8 | z4 A4 | F2 E2 C2 F2 | A4 G2 A2 | E2 F2 G2 A2 | A6 AG | F2 E2 A2 A2 | c2 B2 A2 F2 | %16
 E2 F2 G2 A2 | F8 |] %18
V:3
 z4 C4 | B,2 A,2 F,2 F,2 | A,2 B,2[K:treble] C2 DC | B,2 A,2[K:bass] F,2 E,2 | F,6 F,G, | %5
 A,2 B,2[K:treble] CD E2 | F4 G2 F2 | E2 F2 E2 D2 | C8 | z4[K:bass] F,4 | A,2 B,2 CD[K:treble] E2 | %11
 F4 G2 F2 | E2 F2 E2 D2 | C6 DC | B,2 A,2 F,2 F,2 | A,2 B,2 C2 DC | B,2 A,2 F,2 E,2 | F,8 |] %18
V:4
 z4 F,4 | B,2 B,2 C2 C2 | A,2 E,2 F,2 F,2 | E,2 F,2 B,,2 C,2 | F,6 F,E, | C,2 B,,2 C,2 E,2 | %6
 F,4 E,2 F,2 | A,2 A,2 E,2 F,2 | C,8 | z4 F,4 | F,2 E,2 C,2 C,2 | F,4 G,2 F,2 | E,2 F,2 G,2 A,2 | %13
 F,6 F,2 | B,2 B,2 C2 C2 | A,2 E,2 F,2 F,2 | E,2 F,2 B,,2 C,2 | F,8 |] %18

